dist/svg/static/projects-small.svg

<svg xmlns="http://www.w3.org/2000/svg" width="24" height="24" viewBox="0 0 24 24"><g stroke="currentColor"><path d="M2.5 9.5h18a1 1 0 0 1 1 1v13h-18a1 1 0 0 1-1-1v-13zM15 19.5h4m-9 0h4m-9 0h4m6-3h4m-9 0h4m-9 0h4m6-3h4m-9 0h4m-9 0h4" fill="none"/><path d="M18.558 9.5l-5.202-6.265m-3.718-.019L4.358 9.5" fill="currentColor"/><circle cx="11.5" cy="2.5" r="2" fill="none"/></g></svg>

<svg xmlns="http://www.w3.org/2000/svg" width="24" height="24" viewBox="0 0 24 24"><g stroke="currentColor"><path d="M2.5 9.5h18a1 1 0 0 1 1 1v13h-18a1 1 0 0 1-1-1v-13z" fill="none"/><g fill="none"><path d="M15 19.5h4M10 19.5h4M5 19.5h4M15 16.5h4M10 16.5h4M5 16.5h4M15 13.5h4M10 13.5h4M5 13.5h4"/></g><g fill="currentColor"><path d="M18.558 9.5l-5.202-6.265M9.638 3.216L4.358 9.5"/></g><circle cx="11.5" cy="2.5" r="2" fill="none"/></g></svg>
